icons/svg/amenity/barbecue.svg

<?xml version="1.0" encoding="UTF-8" standalone="no"?>
<!-- Created with Inkscape (http://www.inkscape.org/) -->

<svg
   xmlns:dc="http://purl.org/dc/elements/1.1/"
   xmlns:cc="http://creativecommons.org/ns#"
   xmlns:rdf="http://www.w3.org/1999/02/22-rdf-syntax-ns#"
   xmlns:svg="http://www.w3.org/2000/svg"
   xmlns="http://www.w3.org/2000/svg"
   xmlns:sodipodi="http://sodipodi.sourceforge.net/DTD/sodipodi-0.dtd"
   xmlns:inkscape="http://www.inkscape.org/namespaces/inkscape"
   version="1.0"
   width="580"
   height="580"
   id="svg2"
   sodipodi:version="0.32"
   inkscape:version="0.91 r"
   sodipodi:docname="bbq.svg"
   inkscape:output_extension="org.inkscape.output.svg.inkscape">
  <metadata
     id="metadata2975">
    <rdf:RDF>
      <cc:Work
         rdf:about="">
        <dc:format>image/svg+xml</dc:format>
        <dc:type
           rdf:resource="http://purl.org/dc/dcmitype/StillImage" />
        <cc:license
           rdf:resource="http://web.resource.org/cc/PublicDomain" />
        <dc:language>en</dc:language>
      </cc:Work>
    </rdf:RDF>
  </metadata>
  <sodipodi:namedview
     inkscape:window-height="1006"
     inkscape:window-width="1920"
     inkscape:pageshadow="2"
     inkscape:pageopacity="0.0"
     guidetolerance="10.0"
     gridtolerance="10.0"
     objecttolerance="10.0"
     borderopacity="1.0"
     bordercolor="#666666"
     pagecolor="#ffffff"
     id="base"
     inkscape:zoom="0.65172414"
     inkscape:cx="115.06793"
     inkscape:cy="344.35375"
     inkscape:window-x="1680"
     inkscape:window-y="0"
     inkscape:current-layer="svg2"
     showgrid="false"
     inkscape:window-maximized="1" />
  <defs
     id="defs4">
    <inkscape:perspective
       sodipodi:type="inkscape:persp3d"
       inkscape:vp_x="0 : 290 : 1"
       inkscape:vp_y="0 : 1000 : 0"
       inkscape:vp_z="580 : 290 : 1"
       inkscape:persp3d-origin="290 : 193.33333 : 1"
       id="perspective2441" />
    <inkscape:perspective
       id="perspective3452"
       inkscape:persp3d-origin="30 : 20 : 1"
       inkscape:vp_z="60 : 30 : 1"
       inkscape:vp_y="0 : 1000 : 0"
       inkscape:vp_x="0 : 30 : 1"
       sodipodi:type="inkscape:persp3d" />
    <symbol
       viewBox="244.5 110 489 219.9"
       id="symbol-university">
      <path
         id="path4460"
         d="M79,43l57,119c0,0,21-96,104-96s124,106,124,106l43-133l82-17L0,17L79,43z" />
      <path
         id="path4462"
         d="M94,176l-21,39"
         stroke-width="20"
         stroke="#000000"
         fill="none" />
      <path
         id="path4464"
         d="M300,19c0,10.5-22.6,19-50.5,19S199,29.5,199,19s22.6-19,50.5-19S300,8.5,300,19z" />
      <path
         id="path4466"
         d="M112,216l-16-38L64,88c0,0-9-8-4-35s16-24,16-24"
         stroke-width="20"
         stroke="#000000"
         ill="none" />
    </symbol>
    <inkscape:perspective
       id="perspective4471"
       inkscape:persp3d-origin="372.04724 : 350.78739 : 1"
       inkscape:vp_z="744.09448 : 526.18109 : 1"
       inkscape:vp_y="0 : 1000 : 0"
       inkscape:vp_x="0 : 526.18109 : 1"
       sodipodi:type="inkscape:persp3d" />
    <inkscape:perspective
       id="perspective4668"
       inkscape:persp3d-origin="6 : 4 : 1"
       inkscape:vp_z="12 : 6 : 1"
       inkscape:vp_y="0 : 1000 : 0"
       inkscape:vp_x="0 : 6 : 1"
       sodipodi:type="inkscape:persp3d" />
    <inkscape:perspective
       id="perspective2562"
       inkscape:persp3d-origin="372.04724 : 350.78739 : 1"
       inkscape:vp_z="744.09448 : 526.18109 : 1"
       inkscape:vp_y="0 : 1000 : 0"
       inkscape:vp_x="0 : 526.18109 : 1"
       sodipodi:type="inkscape:persp3d" />
    <inkscape:perspective
       id="perspective12"
       inkscape:persp3d-origin="290 : 193.33333 : 1"
       inkscape:vp_z="580 : 290 : 1"
       inkscape:vp_y="0 : 1000 : 0"
       inkscape:vp_x="0 : 290 : 1"
       sodipodi:type="inkscape:persp3d" />
  </defs>
  <g
     id="g1327">
    <path
       d="M 66.275,1.768 C 24.94,1.768 1.704,23.139 1.704,66.804 L 1.704,516.927 C 1.704,557.771 22.599,579.156 63.896,579.156 L 515.92,579.156 C 557.227,579.156 578.149,558.841 578.149,516.927 L 578.149,66.804 C 578.149,24.203 557.227,1.768 514.628,1.768 C 514.624,1.768 66.133,1.625 66.275,1.768 z "
       style="fill:#111;stroke:#eee;stroke-width:3.40799999"
       id="path1329" />
  </g>
  <polygon
     style="opacity:0.75;fill:#ffffff"
     points="344.123,286.61 312.072,242.54 294.043,286.61 322.242,286.61 "
     id="polygon10"
     transform="matrix(1.7353314,0,0,1,-239.20305,-17.110412)" />
  <path
     style="fill:#ffffff"
     inkscape:connector-curvature="0"
     d="m 376.36581,344.88072 c 26.07856,-19.7829 42.92576,-51.10251 42.92576,-86.36064 l -84.22388,0 -24.11261,0 -31.07497,0 -69.79224,0 0,-104.60074 0,-108.337582 -0.16089,0 c -59.83246,0.04408 -108.30011,48.584467 -108.25493,108.416922 0.043,57.34307 44.62832,104.23819 101.00715,108.00479 1.1086,35.08621 18.8958,65.96393 45.70057,84.96221 l -83.6795,194.13511 c 0,0 -2.69343,10.38124 7.03977,14.99196 9.73319,4.61072 16.4943,-4.84816 16.4943,-4.84816 l 82.75933,-191.99835 c 12.36542,4.90936 25.84714,7.61033 39.96141,7.61033 15.32866,0 29.91017,-3.19025 43.12632,-8.93161 l 83.32906,193.32073 c 0,0 6.46941,9.93251 16.81478,5.19918 10.34537,-4.73334 6.71819,-15.34298 6.71819,-15.34298 z"
     id="path12"
     sodipodi:nodetypes="cccccccccsccczccscczcc" />
  <path
     style="fill:none;fill-rule:evenodd;stroke:#ffffff;stroke-width:23;stroke-linecap:round;stroke-linejoin:miter;stroke-miterlimit:4;stroke-dasharray:none;stroke-opacity:1"
     d="m 257.90877,46.609185 c 0,0 17.97976,19.718164 17.97976,46.447262 0,26.729103 -19.48123,25.520183 -19.48123,60.975483 0,24.38233 19.35248,39.48988 19.35248,39.48988"
     id="path4184"
     inkscape:connector-curvature="0"
     sodipodi:nodetypes="czsc" />
  <path
     style="fill:none;fill-rule:evenodd;stroke:#ffffff;stroke-width:23;stroke-linecap:round;stroke-linejoin:miter;stroke-miterlimit:4;stroke-dasharray:none;stroke-opacity:1"
     d="m 318.79648,46.609183 c 0,0 17.97976,19.718164 17.97976,46.447262 0,26.729105 -19.48123,25.520185 -19.48123,60.975485 0,24.38233 19.35248,39.48988 19.35248,39.48988"
     id="path4184-6"
     inkscape:connector-curvature="0"
     sodipodi:nodetypes="czsc" />
  <path
     style="fill:none;fill-rule:evenodd;stroke:#ffffff;stroke-width:23;stroke-linecap:round;stroke-linejoin:miter;stroke-miterlimit:4;stroke-dasharray:none;stroke-opacity:1"
     d="m 379.68416,46.609183 c 0,0 17.97976,19.718164 17.97976,46.447262 0,26.729105 -19.48123,25.520185 -19.48123,60.975485 0,24.38233 19.35248,39.48988 19.35248,39.48988"
     id="path4184-7"
     inkscape:connector-curvature="0"
     sodipodi:nodetypes="czsc" />
</svg>

<svg width="580" height="580" viewBox="0 0 580 580" fill="none" xmlns="http://www.w3.org/2000/svg">
<g clip-path="url(#clip0)">
<path d="M66.2751 1.76799C24.9401 1.76799 1.7041 23.139 1.7041 66.804V516.927C1.7041 557.771 22.5991 579.156 63.8961 579.156H515.92C557.227 579.156 578.149 558.841 578.149 516.927V66.804C578.149 24.203 557.227 1.76799 514.628 1.76799C514.624 1.76799 66.1331 1.62499 66.2751 1.76799Z" fill="#111111" stroke="#EEEEEE" stroke-width="3.408"/>
<path opacity="0.75" d="M357.964 269.5L302.345 225.43L271.059 269.5H319.994H357.964Z" fill="white"/>
<path d="M376.366 344.881C402.444 325.098 419.292 293.778 419.292 258.52H335.068H310.955H279.88H210.088V153.919V45.5818H209.927C150.095 45.6259 101.627 94.1662 101.672 153.999C101.715 211.342 146.3 258.237 202.679 262.004C203.788 297.09 221.575 327.967 248.38 346.966L164.7 541.101C164.7 541.101 162.007 551.482 171.74 556.093C181.473 560.704 188.234 551.245 188.234 551.245L270.994 359.246C283.359 364.156 296.841 366.857 310.955 366.857C326.284 366.857 340.865 363.666 354.081 357.925L437.411 551.246C437.411 551.246 443.88 561.178 454.225 556.445C464.571 551.712 460.944 541.102 460.944 541.102L376.366 344.881Z" fill="white"/>
<path d="M257.909 46.6092C257.909 46.6092 275.888 66.3274 275.888 93.0565C275.888 119.786 256.407 118.577 256.407 154.032C256.407 178.414 275.76 193.522 275.76 193.522" stroke="white" stroke-width="23" stroke-linecap="round"/>
<path d="M318.796 46.6092C318.796 46.6092 336.776 66.3274 336.776 93.0564C336.776 119.786 317.295 118.577 317.295 154.032C317.295 178.414 336.647 193.522 336.647 193.522" stroke="white" stroke-width="23" stroke-linecap="round"/>
<path d="M379.684 46.6092C379.684 46.6092 397.664 66.3274 397.664 93.0564C397.664 119.786 378.183 118.577 378.183 154.032C378.183 178.414 397.535 193.522 397.535 193.522" stroke="white" stroke-width="23" stroke-linecap="round"/>
</g>
<defs>
<clipPath id="clip0">
<path d="M0 0H580V580H0V0Z" fill="white"/>
</clipPath>
</defs>
</svg>
